docs/svgs/room-porch.svg

<svg viewBox="0 0 24 24" height="24px" width="24px" fill="#44739e" xmlns="http://www.w3.org/2000/svg"><title>hue:room-porch</title><desc>Source: https://github.com/arallsopp/hass-hue-icons</desc><path d="M 10.339844 19.277344 L 11.429688 15.863281 L 13.773438 15.519531 L 15.238281 19.320312 C 13.640625 19.566406 11.925781 19.554688 10.339844 19.277344 Z M 8.125 11.296875 C 8.640625 11.21875 9.445312 11.101562 10.363281 10.964844 L 11.007812 13.660156 L 8.792969 13.992188 Z M 14.824219 13.089844 L 12.496094 13.4375 L 11.855469 10.746094 C 12.664062 10.628906 13.472656 10.511719 14.183594 10.414062 Z M 20.152344 18.332031 C 19.945312 17.972656 19.488281 17.847656 19.128906 18.050781 C 18.429688 18.449219 17.617188 18.765625 16.726562 19.007812 L 15.292969 15.296875 L 19.5 14.679688 C 19.324219 13.453125 18.1875 12.597656 16.960938 12.773438 L 16.316406 12.867188 L 15.679688 10.21875 C 15.828125 10.199219 15.953125 10.183594 16.058594 10.171875 C 16.484375 10.179688 16.828125 10.527344 16.828125 10.953125 C 16.828125 11.367188 17.164062 11.703125 17.578125 11.703125 C 17.992188 11.703125 18.328125 11.367188 18.328125 10.953125 C 18.328125 9.695312 17.300781 8.667969 16.042969 8.667969 C 16.03125 8.667969 16.019531 8.675781 16.003906 8.675781 C 15.992188 8.675781 15.980469 8.671875 15.96875 8.671875 C 14.664062 8.804688 9.359375 9.597656 7.761719 9.835938 L 6.359375 4.183594 C 6.1875 3.488281 5.5625 3 4.847656 3 L 3.75 3 L 7.082031 16.5 L 9.777344 16.105469 L 8.875 18.9375 C 8.085938 18.703125 7.367188 18.410156 6.742188 18.050781 C 6.382812 17.847656 5.921875 17.972656 5.71875 18.332031 C 5.511719 18.691406 5.636719 19.148438 5.996094 19.355469 C 6.910156 19.875 7.96875 20.28125 9.144531 20.5625 C 10.347656 20.855469 11.621094 21 12.933594 21 C 14.246094 21 15.523438 20.855469 16.726562 20.5625 C 17.898438 20.28125 18.957031 19.875 19.871094 19.355469 C 20.230469 19.148438 20.355469 18.691406 20.152344 18.332031 Z M 20.152344 18.332031 "/></svg>

<svg viewBox="0 0 24 24" height="24px" width="24px" fill="#44739e" xmlns="http://www.w3.org/2000/svg"><title>hue:room-porch</title><desc>Source: https://github.com/arallsopp/hass-hue-icons</desc><path d="M10.34,19.28l1.09-3.41l2.34-0.34l1.46,3.8C13.64,19.57,11.93,19.55,10.34,19.28z M8.12,11.3 c0.52-0.08,1.32-0.2,2.24-0.33l0.64,2.7l-2.21,0.33L8.12,11.3z M14.82,13.09l-2.33,0.35l-0.64-2.69c0.81-0.12,1.62-0.23,2.33-0.33 L14.82,13.09z M20.15,18.33c-0.21-0.36-0.66-0.48-1.02-0.28c-0.7,0.4-1.51,0.71-2.4,0.96l-1.43-3.71l4.21-0.62 c-0.18-1.23-1.31-2.08-2.54-1.91l-0.64,0.09l-0.64-2.65c0.15-0.02,0.27-0.04,0.38-0.05c0.43,0.01,0.77,0.36,0.77,0.78 c0,0.41,0.34,0.75,0.75,0.75s0.75-0.34,0.75-0.75c0-1.26-1.03-2.29-2.29-2.29c-0.01,0-0.02,0.01-0.04,0.01c-0.01,0-0.02,0-0.04,0 C14.66,8.8,9.36,9.6,7.76,9.84l-1.4-5.65C6.19,3.49,5.56,3,4.85,3h-1.1l3.33,13.5l2.7-0.39l-0.9,2.83 c-0.79-0.23-1.51-0.53-2.13-0.89c-0.36-0.2-0.82-0.08-1.02,0.28C5.51,18.69,5.64,19.15,6,19.36c0.91,0.52,1.97,0.93,3.15,1.21 c1.2,0.29,2.48,0.44,3.79,0.44s2.59-0.14,3.79-0.44c1.17-0.28,2.23-0.69,3.14-1.21C20.23,19.15,20.36,18.69,20.15,18.33z"/></svg>
